icons/fhir_logo_fill.svg

<svg width="48" height="48" viewBox="0 0 48 48" fill="none" xmlns="http://www.w3.org/2000/svg">
<path d="M24.6503 26.3611C19.0306 32.0027 19.7237 37.6552 22.2761 41.9121C16.4125 39.4121 11 29.5 18.5 20.5C26.5 12.5 25 9 25 6C27.5 10.5 31.4056 19.5794 24.6503 26.3611Z" fill="black"/>
<path d="M23.4963 42C22.2997 39.4068 21.0522 33.1354 24.6754 29.5003C31.2042 22.7706 30.156 16.8728 30.0108 16.517C30.0037 16.5057 30 16.5 30 16.5C30.0025 16.5 30.0062 16.5057 30.0108 16.517C30.2787 16.9411 35.3998 25.2461 31.6314 34.5C33.8055 33.2442 34.7301 31.5286 35 31C33.8743 40.1244 28.1182 41.6255 23.4963 42Z" fill="black"/>
<path d="M21.5001 15.5C18.5001 17.3333 11.7183 22 11.3183 28C10.9183 34 14.3183 36.5 16.3183 38.5C15.3183 37 13.3183 33.3 13.3183 28.5C13.3183 23.7 18.8334 17.6667 21.5001 15.5Z" fill="black"/>
</svg>

<svg
  xmlns="http://www.w3.org/2000/svg"
  width="24"
  height="24"
  viewBox="0 0 24 24"
  fill="none"
  stroke="currentColor"
  stroke-width="2"
  stroke-linecap="round"
  stroke-linejoin="round"
>
  <path d="M24.65 26.361c-5.62 5.642-4.926 11.294-2.374 15.551C16.413 39.412 11 29.5 18.5 20.5 26.5 12.5 25 9 25 6c2.5 4.5 6.406 13.58-.35 20.361" />
  <path d="M23.496 42c-1.196-2.593-2.444-8.865 1.18-12.5 6.528-6.73 5.48-12.627 5.335-12.983L30 16.5q.004 0 .01.017c.269.424 5.39 8.73 1.621 17.983 2.175-1.256 3.1-2.971 3.369-3.5-1.126 9.124-6.882 10.626-11.504 11" />
  <path d="M21.5 15.5c-3 1.833-9.782 6.5-10.182 12.5s3 8.5 5 10.5c-1-1.5-3-5.2-3-10s5.515-10.833 8.182-13" />
</svg>
